src/assets/top/LongHairDreads.svg

<svg width='280px' height='280px' viewBox='0 0 280 280' version='1.1' xmlns='http://www.w3.org/2000/svg'>
      <g id='Top' strokeWidth='1' fillRule='evenodd'>
        <defs>
          <rect id='path1' x='0' y='0' width='264' height='280' />
          <path
            d='M85.718098,185.073467 C86.8059563,185.024663 87.900098,185 89,185 L89,185 L93,185 L93,166.610951 C81.2286384,161.018987 71.7176526,151.441235 66.2110974,139.621749 C63.4467803,131.013632 63.6113966,121.686985 63.000708,112.826222 C62.1957105,101.145772 62.8887367,89.7481762 65.5369124,78.2476834 C67.9263583,67.8722634 71.3610508,62.3068417 79.1631677,53.9925443 C83.5224388,49.3467459 90.0678681,49.0779432 96.5828586,47.4293172 C103.17612,45.7598396 109.194306,43.2191332 113.317676,38.4387068 C122.400941,48.8499369 146.671683,45.1030183 155.554378,56.4493915 C166.355804,70.2471725 166.476604,79.1499376 167.747424,95.0917937 C168.700138,107.043152 167.218859,128.656014 166.803718,141.630125 C161.185514,152.525228 152.097197,161.339247 141,166.610951 L141,185 L145,185 C151.635699,185 158.061736,185.89767 164.1633,187.578199 C162.113115,190.752042 159.66929,193.757151 157.112045,196.551224 C153.280561,200.738743 149.430596,205.07041 145.111547,208.917959 C140.170678,213.319433 135.443967,216.514694 132.444114,221.999991 C131.086326,224.482676 128.707208,227.093643 131.224932,229.817026 C133.524148,232.304244 137.149083,231.79157 139.609734,229.99245 C143.247171,227.332528 145.947527,223.133676 149.2996,220.076669 C146.062216,225.891963 141.557817,234.561189 143.870623,241.081807 C144.65714,243.298862 145.455615,243.254893 146.671536,244.732627 C148.591355,244.77569 149.350151,245.644199 148.948467,247.337701 C149.128382,247.821818 149.308297,248.305028 149.488756,248.789145 C150.944383,251.382887 153.73062,253.199684 157.268587,251.977153 C168.828809,247.982737 155.493353,230.015568 168.22112,224.674872 C170.498594,227.504326 167.135107,235.453723 167.044334,238.930932 C166.932906,243.218176 167.166089,252.943574 173.685972,254.109896 C182.182202,255.630241 178.905139,247.513126 179.240509,244.059941 C179.630235,240.043766 182.101213,234.747946 184.111805,231.19141 C182.888817,234.970512 180.603189,243.344644 186.927937,245.060811 C194.245208,247.046687 193.409228,238.475373 194.5197,234.910224 C194.748535,240.185647 201.565196,252.659813 207.724704,242.806586 C210.898493,237.730613 208.733533,229.366 208.385661,223.95323 C212.799287,228.512903 216.32584,222.602417 216.224196,219.322843 C217.902135,224.075166 224.207315,237.325369 229.795009,226.807615 C233.19274,220.412559 229.568892,211.82266 227.311529,205.648358 C233.255792,206.168285 232.061613,200.411919 231.17617,197.553001 C229.869476,193.331485 230.56685,192.711833 230.835907,188.347077 C239.08591,193.151981 238.833159,180.113465 238.377664,176.915484 C237.232404,168.863643 230.969077,161.653567 226.135287,154.862787 C222.669068,149.991702 216.20028,141.510593 218.096726,135.636824 C220.053506,138.105004 224.604107,138.079166 226.413041,135.494944 C227.944765,133.306899 226.321725,129.699141 225.582497,127.51291 C223.561578,121.532617 219.523001,117.668749 215.871976,112.532035 C208.763972,102.531035 209.78639,89.3991407 209.129238,78.2191259 C208.309564,64.2703984 205.315147,50.5387982 192.648801,40.3918378 C185.862036,34.9554966 177.590835,30.4783232 171.278589,24.7101717 C169.557166,23.1372455 168.829352,21.1885396 167.213378,19.672275 C165.399552,17.9706136 164.553244,18.373591 163.055221,15.951194 C160.386934,11.6367527 157.252824,7.59700681 150.804147,7.39438491 C146.585112,7.26247669 141.249081,10.823092 137.446405,10.3027118 C134.324254,9.87616325 132.352254,5.42437419 129.78996,3.93032097 C125.824219,1.61762086 123.056462,2.51559399 118.817859,3.85507435 C112.508874,5.8486563 108.488235,6.54355423 102.06293,4.16059373 C97.6906135,2.53871192 93.5645254,-0.846479064 88.4018873,0.357013447 C84.3524397,1.30167574 82.5435053,4.56991717 80.1584078,7.07481345 C77.6972133,9.66084915 78.8865008,8.80593884 75.2887432,9.38026087 C71.6083661,9.9681817 68.7020041,10.5017074 65.9103313,12.9118655 C61.397779,16.8074642 64.5237352,22.8666297 60.95696,26.3007763 C59.0317058,28.154744 55.0219374,29.0377585 52.7922952,30.954734 C50.3582782,33.0471337 48.3677981,35.5901066 46.5441878,38.0655389 C42.992632,42.8881215 40.5678554,48.1435988 37.9642508,53.3460408 C33.1206766,63.0274694 28.8027153,73.0171372 26.9622549,83.4183949 C26.0170215,88.7645307 24.4238764,93.9946236 23.4503783,99.3303337 C22.6997357,103.444873 23.0198867,107.95151 21.5539323,111.946834 C19.8145722,116.686464 15.6553275,121.042608 13.4023127,125.704271 C10.4144183,131.887186 8.40763163,137.818976 7.77222166,144.475128 C7.14822625,151.019317 8.88486854,156.786109 9.65073052,163.202016 C10.0942673,166.919017 9.32731826,167.341033 6.77100254,170.849066 C4.80389503,173.548878 2.81124068,176.221946 1.54639979,179.227278 C-0.815325022,184.841763 -0.684329469,190.304395 3.42490864,195.240301 C6.24484612,198.627758 15.7238148,202.173415 14.9476254,194.622463 C14.5872518,191.114429 10.1763434,189.527451 11.0188459,185.502664 C11.6020751,182.715366 14.443211,180.786605 17.8920358,179.924895 C20.328227,179.316576 21.5278419,179.343321 22.6269,182.014575 C23.6232272,184.435613 22.3024007,189.72146 21.996382,192.265793 C21.8735397,193.288422 21.691994,194.184582 21.5686081,195.131511 C20.7005588,201.806248 20.5407551,207.947459 16.8870119,214.076432 C14.6426939,217.842389 10.2513533,223.149088 15.258536,226.778604 C19.2177543,229.649308 26.0490909,227.900051 29.1359115,224.896532 C32.3923196,228.923586 31.668311,233.320073 30.4502154,237.765516 C29.6941373,240.525616 27.6264731,244.567629 30.8812505,246.798736 C35.2888976,249.820386 42.4838692,245.061265 45.7886533,242.659719 C47.6992316,246.926565 49.4918595,262.485842 57.0243756,253.211017 C59.2224919,250.505765 62.8816706,247.867147 63.5785017,244.677325 C64.7346326,239.386945 63.9046317,233.818695 64.3834993,228.474826 C66.7870774,235.472308 68.4211208,238.262053 69.8925107,245.444931 C70.7774101,249.766172 71.124195,264.264472 80.0666799,262.354749 C86.9474795,260.885627 82.5468986,251.830921 81.6679782,248.139757 C79.9846038,241.070655 79.1724081,238.077382 77.5455629,230.999667 C80.078506,235.625521 82.2918416,240.371497 84.725315,245.034067 C87.115848,249.613685 97.8039252,259.060923 100.930715,255.083614 C104.057505,251.106306 96.435013,245.438857 94.7010885,240.623528 C91.0924599,230.599863 86.7201436,220.618354 85.6835937,210.116466 C85.1851583,205.067237 86.1200644,200.404213 86.5299011,195.413459 C86.8096981,192.003861 86.3887166,188.510775 85.718098,185.073467 Z'
            id='path2'
          />
        </defs>
        <mask id='mask2' fill='white'>
          <use href='#path1' />
        </mask>
        <g id='Mask' />
        <g id='Top/Long-Hair/Dreads' mask='url("#mask2")'>
          <g transform='translate(-1.000000, 0.000000)'>
            <g
              id='template-for-hairstyles'
              strokeWidth='1'
              fillRule='evenodd'
              transform='translate(63.000000, 87.000000)'
            />
            <g
              id='Hair'
              strokeWidth='1'
              fillRule='evenodd'
              transform='translate(16.000000, 14.000000)'>
              <mask id='mask1' fill='white'>
                <use href='#path2' />
              </mask>
              <use class='CustomColor' fill='#8D5A5A' href='#path2' />
              <path
                d='M85.718098,185.073467 C86.8059563,185.024663 87.900098,185 89,185 L89,185 L93,185 L93,166.610951 C81.2286384,161.018987 71.7176526,151.441235 66.2110974,139.621749 C66.7437304,141.280375 67.3851037,142.912325 68.1617154,144.509125 C73.916823,156.341882 81.4183567,166.92083 84.4877837,179.589912 C84.9233139,181.387079 85.3569126,183.222183 85.718098,185.073467 Z M164.1633,187.578199 C158.061736,185.89767 151.635699,185 145,185 L145,185 L141,185 L141,166.610951 C151.900717,161.432585 160.863061,152.836228 166.502046,142.206866 C166.424719,145.200638 166.492065,148.178617 166.874747,151.055581 C167.944997,159.099715 170.876362,166.366 169.515856,174.635875 C168.770949,179.167686 166.790265,183.511457 164.1633,187.578199 Z'
                id='Shadows'
                opacity='0.24'
                fill='#000000'
                mask='url("#mask1")'
              />
              <path
                d='M49.3607552,108.248307 C49.2357387,105.826133 47.3806025,97.711311 49.6885159,96.3093564 C52.2181977,94.7715832 51.6909542,104.01582 51.7170446,104.962941 C51.7605286,106.500263 52.928074,118.098087 50.7897482,118.046647 C48.6579451,117.995659 49.4428313,109.828495 49.3607552,108.248307 Z M57.7950752,165.998415 C57.7863784,167.012316 56.722651,166.95095 55.9633116,166.68563 C55.0256879,166.358041 55.5996767,164.201639 55.5502136,163.49457 C55.4197616,161.635525 54.5272525,156.156756 55.8904759,154.62169 C58.6158357,151.553363 57.8059462,164.569838 57.7950752,165.998415 Z M32.1210881,179.161492 C34.0501471,179.106894 32.2645853,141.329473 29.29952,141.371437 C27.2171799,141.400766 30.6611128,179.198041 32.1210881,179.161492 Z M34.3531219,198.516092 C31.9555228,198.516092 32.3963419,206.978357 33.8084848,207.654742 C35.9484412,208.679924 37.0349977,198.516092 34.3531219,198.516092 Z M49.5898072,202.054956 C49.6110057,203.112626 48.4113908,203.129321 47.6107416,202.798574 C46.701926,202.423155 47.082411,199.293461 47.0465367,198.598576 C46.9334783,196.41149 45.0299661,187.926664 46.7611729,186.367683 C48.7353466,184.59031 48.7782871,186.540953 49.3093354,187.8662 C50.8731288,191.768841 49.505557,197.898275 49.5898072,202.054956 Z M190.242397,122.33319 C190.352194,123.795609 191.311016,133.35074 189.717871,134.079016 C186.975661,135.332969 188.156795,129.428696 188.167666,128.666127 C188.274745,121.229044 187.19906,113.85423 186.381017,106.456855 C186.225562,105.052193 183.755671,94.2318284 185.564605,93.3352452 C188.272028,91.9937546 187.86817,95.5809897 188.023082,96.7451491 C189.152035,105.213731 189.651014,113.824449 190.242397,122.33319 Z M187.023004,155.587221 C184.490605,155.085459 183.16543,163.680835 184.321017,164.602687 C186.238118,166.132789 189.670093,156.113348 187.023004,155.587221 Z M186.754925,193.385172 C185.616188,193.158658 177.321615,209.117567 178.004314,210.020016 C179.303942,211.738731 190.833725,194.199633 186.754925,193.385172 Z M166.332555,200.758587 C164.551342,199.95631 156.998715,211.509915 158.926686,212.377619 C160.674743,213.163653 168.488275,201.725562 166.332555,200.758587 Z M208.425286,157.447168 C206.274459,157.447168 206.370123,169.269251 208.025233,170.015125 C209.736329,170.785817 210.967469,157.447168 208.425286,157.447168 Z M178.139603,48.8435128 C177.531371,47.9735519 170.964743,40.2233192 175.668081,41.3306242 C177.959145,41.8698375 181.116083,48.6833281 182.149372,50.7413632 C182.743472,51.9235715 186.133593,57.2006425 182.541271,56.8270286 C181.563968,56.7259543 178.951667,50.0063184 178.139603,48.8435128 Z M155.04775,33.3564939 C154.201443,33.7373274 154.215575,34.0946972 155.090147,34.4281522 C155.936998,34.0473186 155.922322,33.6904 155.04775,33.3564939 Z M70.6188876,41.486432 C68.6137316,43.3296843 61.07578,54.0047545 58.4928303,54.1116947 C53.7862308,54.3066237 62.7711125,45.0867526 63.7902688,43.9135688 C64.2452201,43.387441 66.275923,40.8222295 67.5119557,40.1914176 C68.7729918,39.5475202 72.9556091,39.3322861 70.6188876,41.486432 Z M43.2540252,69.9805849 C41.0711283,69.5519216 37.4190158,80.245492 38.693097,81.5359942 C40.6167205,83.4857354 45.7005438,70.4661025 43.2540252,69.9805849 Z M68.1928608,188.992366 C68.6054153,190.333405 72.8244505,200.071733 71.7639844,201.353211 C70.1425747,203.310623 69.6772959,200.536495 69.1467911,199.385872 C67.9689182,196.830588 64.9087316,190.540066 65.4006444,187.850317 C65.8784249,185.241788 67.775958,187.648619 68.1928608,188.992366 Z M59.986234,211.816206 C57.6913658,211.816206 57.9560747,221.618156 59.3225594,222.200687 C61.4391432,223.102685 62.8012795,211.816206 59.986234,211.816206 Z M221.791072,203.446532 C221.927503,204.049819 223.845148,209.009228 221.128485,208.290879 C219.566322,207.878008 219.325529,203.506094 218.926564,202.180847 C217.697597,198.095009 213.646519,193.018282 213.294842,188.98659 C212.955123,185.090266 215.135302,186.575246 216.80998,189.875503 C219.046145,194.283064 220.722996,198.746577 221.791072,203.446532 Z M202.089015,202.950817 C199.957212,202.941341 199.853937,213.724254 201.187265,214.35281 C203.051098,215.231344 204.808395,202.950817 202.089015,202.950817 Z M208.249611,114.654432 C209.831341,114.242012 204.839921,101.328868 203.071753,101.471004 C200.377376,101.688494 205.847663,115.273512 208.249611,114.654432 Z M181.434114,170.746831 C180.587263,171.127665 180.601939,171.485034 181.476511,171.818489 C182.322818,171.437656 182.308686,171.080286 181.434114,170.746831 Z M157.216135,225.987499 C158.009718,225.987499 158.337478,224.763778 157.165041,224.736253 C156.389939,224.742571 155.980645,225.987499 157.216135,225.987499 Z M58.6844317,170.628746 C58.7137834,168.720066 56.215084,170.119764 56.230847,171.730185 C56.26346,174.943806 58.6317074,173.476424 58.6844317,170.628746 Z M52.5187808,122.883143 C51.7148704,122.883143 51.3854791,124.119498 52.5698745,124.148828 C53.3536737,124.142962 53.7673152,122.883143 52.5187808,122.883143 Z M33.3865269,185.392722 C33.3087993,183.451554 31.6863025,185.43604 31.7770753,185.438747 C32.0651568,185.445967 33.4474045,186.856043 33.3865269,185.392722 Z M37.5995831,84.0632577 C35.2318792,84.0632577 35.5754028,89.8168218 37.0864719,90.1859235 C39.6063697,90.801845 39.9509805,84.0632577 37.5995831,84.0632577 Z M50.212933,208.325849 C47.9273051,208.325849 47.7729369,216.139704 49.3503191,216.625673 C51.8011861,217.379669 52.5931385,208.325849 50.212933,208.325849 Z M31.4567613,213.932223 C30.5849071,214.323435 30.5990394,214.691634 31.4991582,215.035467 C32.371556,214.644256 32.3568801,214.276959 31.4567613,213.932223 Z M201.455507,217.282881 C199.135636,217.282881 199.226409,226.836207 200.65051,227.481458 C202.64099,228.383907 204.139014,217.282881 201.455507,217.282881 Z M177.94561,226.161536 C175.534966,225.679629 174.272299,233.567034 175.395817,234.451885 C177.248236,235.910694 180.42148,226.656078 177.94561,226.161536 Z M157.46508,233.451204 C155.467534,233.451204 155.95836,237.025805 157.110686,237.557799 C159.104971,238.478297 159.694179,233.451204 157.46508,233.451204 Z M86.479514,19.5090896 C84.8080977,19.5090896 74.3192131,24.2532644 78.2392958,25.6588288 C80.6358078,26.5179603 90.7371413,19.5090896 86.479514,19.5090896 Z'
                id='Highlights'
                opacity='0.300000012'
                fill='#FFFFFF'
                mask='url("#mask1")'
              />
            </g>
            <g
              id='Group-74'
              strokeWidth='1'
              fillRule='evenodd'
              transform='translate(44.000000, 33.000000)'
            />
          </g>
        </g>
      </g>
</svg>

<svg width="280" height="280" xmlns="http://www.w3.org/2000/svg"><defs><path id="a" d="M0 0h264v280H0z"/><path d="M85.718 185.073A73.225 73.225 0 0189 185h4v-18.389a56.224 56.224 0 01-26.789-26.99c-2.764-8.607-2.6-17.934-3.21-26.795-.805-11.68-.112-23.078 2.536-34.578 2.39-10.376 5.824-15.941 13.626-24.255 4.36-4.646 10.905-4.915 17.42-6.564 6.593-1.67 12.611-4.21 16.735-8.99 9.083 10.41 33.354 6.664 42.236 18.01 10.802 13.798 10.923 22.7 12.193 38.643.953 11.951-.528 33.564-.943 46.538A56.235 56.235 0 01141 166.611V185h4c6.636 0 13.062.898 19.163 2.578-2.05 3.174-4.494 6.18-7.051 8.973-3.831 4.188-7.681 8.52-12 12.367-4.941 4.401-9.668 7.597-12.668 13.082-1.358 2.483-3.737 5.094-1.22 7.817 2.3 2.487 5.925 1.975 8.386.175 3.637-2.66 6.338-6.858 9.69-9.915-3.238 5.815-7.742 14.484-5.43 21.005.787 2.217 1.586 2.173 2.802 3.65 1.92.044 2.678.912 2.276 2.606l.54 1.451c1.456 2.594 4.243 4.41 7.78 3.188 11.56-3.994-1.775-21.961 10.953-27.302 2.278 2.83-1.086 10.779-1.177 14.256-.111 4.287.122 14.013 6.642 15.179 8.496 1.52 5.22-6.597 5.555-10.05.39-4.016 2.86-9.312 4.87-12.869-1.222 3.78-3.508 12.154 2.817 13.87 7.317 1.986 6.481-6.586 7.592-10.15.229 5.275 7.045 17.749 13.205 7.896 3.173-5.076 1.009-13.441.66-18.854 4.414 4.56 7.94-1.35 7.84-4.63 1.677 4.752 7.982 18.002 13.57 7.485 3.398-6.395-.226-14.985-2.483-21.16 5.944.52 4.75-5.236 3.864-8.095-1.307-4.222-.61-4.841-.34-9.206 8.25 4.805 7.997-8.234 7.542-11.432-1.146-8.051-7.409-15.261-12.243-22.052-3.466-4.871-9.935-13.352-8.038-19.226 1.957 2.468 6.507 2.442 8.316-.142 1.532-2.188-.091-5.796-.83-7.982-2.021-5.98-6.06-9.844-9.711-14.981-7.108-10.001-6.086-23.133-6.743-34.313-.82-13.949-3.814-27.68-16.48-37.827-6.787-5.437-15.058-9.914-21.37-15.682-1.722-1.573-2.45-3.521-4.066-5.038-1.813-1.701-2.66-1.298-4.158-3.72-2.668-4.315-5.802-8.355-12.25-8.558-4.22-.132-9.556 3.43-13.359 2.909-3.122-.427-5.094-4.879-7.656-6.373-3.966-2.312-6.734-1.414-10.972-.075-6.31 1.994-10.33 2.689-16.755.306C97.69 2.539 93.565-.846 88.402.357c-4.05.945-5.858 4.213-8.244 6.718-2.46 2.586-1.271 1.73-4.87 2.305-3.68.588-6.586 1.122-9.378 3.532-4.512 3.895-1.386 9.955-4.953 13.389-1.925 1.854-5.935 2.737-8.165 4.654-2.434 2.092-4.424 4.635-6.248 7.11-3.551 4.823-5.976 10.079-8.58 15.281-4.843 9.681-9.161 19.671-11.002 30.072-.945 5.347-2.538 10.577-3.512 15.912-.75 4.115-.43 8.622-1.896 12.617-1.74 4.74-5.899 9.096-8.152 13.757-2.988 6.183-4.994 12.115-5.63 18.771-.624 6.544 1.113 12.311 1.879 18.727.443 3.717-.324 4.139-2.88 7.647-1.967 2.7-3.96 5.373-5.225 8.378-2.361 5.615-2.23 11.077 1.879 16.013 2.82 3.388 12.299 6.933 11.523-.618-.36-3.508-4.772-5.095-3.93-9.12.584-2.787 3.425-4.715 6.874-5.577 2.436-.608 3.636-.582 4.735 2.09.996 2.42-.325 7.706-.63 10.25-.123 1.023-.305 1.92-.428 2.867-.868 6.674-1.028 12.815-4.682 18.944-2.244 3.766-6.636 9.073-1.628 12.703 3.959 2.87 10.79 1.121 13.877-1.882 3.256 4.027 2.532 8.423 1.314 12.869-.756 2.76-2.824 6.802.431 9.033 4.408 3.021 11.603-1.738 14.908-4.14 1.91 4.268 3.703 19.827 11.235 10.552 2.198-2.705 5.858-5.344 6.555-8.534 1.156-5.29.326-10.858.804-16.202 2.404 6.997 4.038 9.787 5.51 16.97.884 4.321 1.231 18.82 10.174 16.91 6.88-1.47 2.48-10.524 1.601-14.215-1.683-7.07-2.496-10.063-4.122-17.14 2.533 4.626 4.746 9.371 7.18 14.034 2.39 4.58 13.078 14.027 16.205 10.05 3.127-3.978-4.496-9.645-6.23-14.46-3.609-10.024-7.98-20.006-9.017-30.508-.499-5.049.436-9.712.846-14.703.28-3.41-.141-6.902-.812-10.34z" id="c"/></defs><mask id="b" fill="#fff"><use href="#a"/></mask><g mask="url(&quot;#b&quot;)"><g transform="translate(15 14)"><mask id="d" fill="#fff"><use href="#c"/></mask><use class="CustomColor" fill="#8D5A5A" href="#c"/><path d="M85.718 185.073A73.225 73.225 0 0189 185h4v-18.389a56.224 56.224 0 01-26.789-26.99 37.04 37.04 0 001.95 4.888c5.756 11.833 13.257 22.412 16.327 35.08.435 1.798.869 3.633 1.23 5.484zm78.445 2.505A72.074 72.074 0 00145 185h-4v-18.389a56.238 56.238 0 0025.502-24.404c-.077 2.994-.01 5.972.373 8.849 1.07 8.044 4.001 15.31 2.64 23.58-.744 4.532-2.725 8.875-5.352 12.942z" opacity=".24" mask="url(&quot;#d&quot;)"/><path d="M49.36 108.248c-.124-2.422-1.98-10.537.329-11.939 2.53-1.537 2.002 7.707 2.028 8.654.044 1.537 1.211 13.135-.927 13.084-2.132-.051-1.347-8.219-1.43-9.799zm8.435 57.75c-.009 1.014-1.072.953-1.832.688-.937-.328-.363-2.484-.413-3.191-.13-1.86-1.023-7.338.34-8.873 2.726-3.069 1.916 9.948 1.905 11.376zm-25.674 13.163c1.93-.054.144-37.832-2.821-37.79-2.083.03 1.361 37.827 2.821 37.79zm2.232 19.355c-2.397 0-1.957 8.462-.545 9.139 2.14 1.025 3.227-9.139.545-9.139zm15.237 3.539c.021 1.058-1.179 1.074-1.98.744-.908-.376-.528-3.506-.563-4.2-.114-2.188-2.017-10.672-.286-12.231 1.974-1.778 2.017.173 2.548 1.498 1.564 3.903.197 10.032.28 14.189zm140.652-79.722c.11 1.463 1.069 11.018-.524 11.746-2.742 1.254-1.561-4.65-1.55-5.413.107-7.437-.969-14.812-1.787-22.21-.155-1.404-2.625-12.224-.816-13.12 2.707-1.342 2.303 2.245 2.458 3.41 1.129 8.468 1.628 17.078 2.22 25.587zm-3.219 33.254c-2.532-.502-3.858 8.094-2.702 9.016 1.917 1.53 5.35-8.49 2.702-9.016zm-.268 37.798c-1.139-.226-9.433 15.733-8.75 16.635 1.299 1.719 12.829-15.82 8.75-16.635zm-20.422 7.374c-1.782-.803-9.334 10.75-7.406 11.619 1.748.786 9.561-10.652 7.406-11.62zm42.092-43.312c-2.15 0-2.055 11.822-.4 12.568 1.711.77 2.942-12.568.4-12.568zM178.14 48.844c-.609-.87-7.175-8.62-2.472-7.513 2.291.539 5.448 7.352 6.481 9.41.594 1.183 3.985 6.46.392 6.086-.977-.101-3.59-6.82-4.401-7.983zm-23.092-15.488c-.847.381-.832.739.042 1.072.847-.38.832-.738-.042-1.072zm-84.43 8.13c-2.004 1.844-9.542 12.519-12.125 12.626-4.707.195 4.278-9.025 5.297-10.198.455-.527 2.486-3.092 3.722-3.723 1.261-.643 5.444-.859 3.107 1.295zM43.255 69.981c-2.183-.43-5.835 10.264-4.56 11.555 1.923 1.95 7.007-11.07 4.56-11.555zm24.939 119.011c.412 1.341 4.631 11.08 3.571 12.361-1.621 1.958-2.087-.817-2.617-1.967-1.178-2.555-4.238-8.846-3.746-11.536.477-2.608 2.375-.201 2.792 1.142zm-8.207 22.824c-2.295 0-2.03 9.802-.663 10.385 2.116.902 3.478-10.385.663-10.385zm161.805-8.37c.137.604 2.054 5.563-.663 4.845-1.562-.413-1.802-4.785-2.201-6.11-1.23-4.086-5.28-9.163-5.632-13.194-.34-3.897 1.84-2.412 3.515.889 2.236 4.407 3.913 8.87 4.981 13.57zm-19.702-.495c-2.132-.01-2.235 10.773-.902 11.402 1.864.878 3.621-11.402.902-11.402zm6.16-88.297c1.582-.412-3.41-13.325-5.177-13.183-2.695.217 2.776 13.803 5.178 13.183zm-26.815 56.093c-.847.38-.832.738.043 1.071.846-.38.832-.738-.043-1.071zm-24.218 55.24c.794 0 1.121-1.223-.051-1.25-.775.006-1.184 1.25.051 1.25zM58.684 170.63c.03-1.909-2.469-.51-2.453 1.101.032 3.214 2.4 1.746 2.453-1.101zm-6.165-47.746c-.804 0-1.134 1.236.05 1.266.785-.006 1.198-1.266-.05-1.266zm-19.132 62.51c-.078-1.941-1.7.043-1.61.046.288.007 1.67 1.417 1.61-.046zM37.6 84.063c-2.368 0-2.025 5.754-.514 6.123 2.52.616 2.865-6.123.514-6.123zm12.613 124.263c-2.286 0-2.44 7.814-.863 8.3 2.451.754 3.243-8.3.863-8.3zm-18.756 5.606c-.872.391-.858.76.042 1.103.873-.39.858-.758-.042-1.103zm169.999 3.35c-2.32 0-2.23 9.554-.805 10.2 1.99.902 3.488-10.2.805-10.2zm-23.51 8.88c-2.411-.482-3.674 7.405-2.55 8.29 1.852 1.459 5.025-7.796 2.55-8.29zm-20.48 7.29c-1.998 0-1.508 3.574-.355 4.106 1.994.92 2.583-4.107.354-4.107zM86.48 19.508c-1.672 0-12.16 4.744-8.24 6.15 2.396.859 12.497-6.15 8.24-6.15z" opacity=".3" fill="#FFF" mask="url(&quot;#d&quot;)"/></g></g></svg>
